icons/14x14_edit_filled.svg

<svg xmlns="http://www.w3.org/2000/svg" width="14" height="14" viewBox="0 0 14 14">
  <path fill-rule="evenodd" d="M11.7293055,5.0221987 L8.87730111,2.17019433 L9.50702141,1.54047403 C9.90033177,1.14615518 10.4166777,0.9495 10.9330236,0.9495 C11.4493695,0.9495 11.9647069,1.14615518 12.3590258,1.54047403 C12.7533446,1.93479288 12.9499998,2.45013031 12.9499998,2.96647622 C12.9499998,3.48282213 12.7533446,3.99916804 12.3590258,4.3924784 L11.7293055,5.0221987 Z M11.0221987,5.72930548 L5.22800636,11.5234978 L1.89868311,12.6332722 C1.7960497,12.6674834 1.68508875,12.6674834 1.58245534,12.6332722 C1.32048368,12.5459483 1.17890369,12.2627884 1.26622758,12.0008167 L2.37600199,8.67149344 L8.17019433,2.87730111 L11.0221987,5.72930548 Z"/>
</svg>

<svg width="14" height="14" fill="none" xmlns="http://www.w3.org/2000/svg"><path fill-rule="evenodd" clip-rule="evenodd" d="M11.73 5.022 8.876 2.17l.63-.63c.393-.394.91-.59 1.426-.59a2.012 2.012 0 0 1 2.017 2.016 2.01 2.01 0 0 1-.59 1.426l-.63.63Zm-.708.707-5.794 5.795-3.33 1.11A.5.5 0 0 1 1.267 12l1.11-3.33L8.17 2.877l2.852 2.852Z" fill="#000"/></svg>
